Resources/app/storefront/src/assets/icon-pack/cinema/ic-double-right.svg

<?xml version="1.0" encoding="UTF-8"?><svg width="18" height="18" viewBox="0 0 18 18" xmlns="http://www.w3.org/2000/svg" xmlns:xlink="http://www.w3.org/1999/xlink"><defs><path d="M3.15662651,0.771084337 L10.1927711,7.80722892 C10.3855422,8 10.4819277,8.28915663 10.4819277,8.48192771 C10.4819277,8.6746988 10.3855422,8.96385542 10.1927711,9.15662651 L3.15662651,16.1927711 C2.77108434,16.5783133 2.09638554,16.5783133 1.80722892,16.1927711 C1.42168675,15.8072289 1.42168675,15.2289157 1.80722892,14.8433735 L8.07228916,8.48192771 L1.80722892,2.12048193 C1.42168675,1.73493976 1.42168675,1.15662651 1.80722892,0.771084337 C2.19277108,0.385542169 2.77108434,0.385542169 3.15662651,0.771084337 Z M9.15662651,0.771084337 L16.1927711,7.80722892 C16.3855422,8 16.4819277,8.28915663 16.4819277,8.48192771 C16.4819277,8.6746988 16.3855422,8.96385542 16.1927711,9.15662651 L9.15662651,16.1927711 C8.77108434,16.5783133 8.09638554,16.5783133 7.80722892,16.1927711 C7.42168675,15.8072289 7.42168675,15.2289157 7.80722892,14.8433735 L14.0722892,8.48192771 L7.80722892,2.12048193 C7.42168675,1.73493976 7.42168675,1.15662651 7.80722892,0.771084337 C8.19277108,0.385542169 8.77108434,0.385542169 9.15662651,0.771084337 Z" id="abc"></path></defs><g fill="none" fill-rule="evenodd"><use fill="currentColor" xlink:href="#abc"></use><g mask="url(#b)" fill="currentColor"></g></g></svg>

<?xml version="1.0" encoding="UTF-8"?><svg width="18" height="18" viewBox="0 0 18 18" xmlns="http://www.w3.org/2000/svg" xmlns:xlink="http://www.w3.org/1999/xlink"><defs><path d="m3.157.771 7.036 7.036c.193.193.289.482.289.675 0 .193-.096.482-.29.675l-7.035 7.036c-.386.385-1.06.385-1.35 0a.932.932 0 0 1 0-1.35l6.265-6.361L1.807 2.12a.932.932 0 0 1 0-1.349.932.932 0 0 1 1.35 0Zm6 0 7.036 7.036c.193.193.289.482.289.675 0 .193-.096.482-.29.675l-7.035 7.036c-.386.385-1.06.385-1.35 0a.932.932 0 0 1 0-1.35l6.265-6.361L7.807 2.12a.932.932 0 0 1 0-1.349.932.932 0 0 1 1.35 0Z" id="ic-double-right"/></defs><g fill="none" fill-rule="evenodd"><use fill="currentColor" xlink:href="#ic-double-right"/></g></svg>
